Simply-Purple-Circles/scalable/apps/xfce4-weather.svg

<svg xmlns="http://www.w3.org/2000/svg" width="48" height="48" viewBox="0 0 12.7 12.7"><path fill="#963996" d="M6.34.07a6.29 6.29 0 0 0-6.29 6.3 6.29 6.29 0 0 0 6.3 6.28 6.29 6.29 0 0 0 6.28-6.29A6.29 6.29 0 0 0 6.34.07zm-.01.94a5.4 5.4 0 0 1 5.4 5.4 5.4 5.4 0 0 1-5.4 5.41 5.4 5.4 0 0 1-5.41-5.4A5.4 5.4 0 0 1 6.32 1zm.02.76c-.84 0-1.53.68-1.53 1.53v3.63a2.29 2.29 0 1 0 3.06 0V3.3c0-.85-.69-1.53-1.53-1.53zm-.38 3.05h.76v2.74a1.15 1.15 0 0 1 .77 1.08 1.15 1.15 0 0 1-1.15 1.14 1.15 1.15 0 0 1-1.14-1.14 1.15 1.15 0 0 1 .76-1.08V4.82z"/><path fill="#ff2a2a" d="M5.97 4.82v2.74a1.15 1.15 0 0 0-.76 1.08 1.15 1.15 0 0 0 1.14 1.14A1.15 1.15 0 0 0 7.5 8.64a1.15 1.15 0 0 0-.77-1.08V4.82z" opacity=".75"/></svg>

<?xml version="1.0" encoding="UTF-8" standalone="no"?>
<svg
   xmlns:dc="http://purl.org/dc/elements/1.1/"
   xmlns:cc="http://creativecommons.org/ns#"
   xmlns:rdf="http://www.w3.org/1999/02/22-rdf-syntax-ns#"
   xmlns:svg="http://www.w3.org/2000/svg"
   xmlns="http://www.w3.org/2000/svg"
   xmlns:sodipodi="http://sodipodi.sourceforge.net/DTD/sodipodi-0.dtd"
   xmlns:inkscape="http://www.inkscape.org/namespaces/inkscape"
   width="48"
   height="48"
   viewBox="0 0 12.7 12.7"
   version="1.1"
   id="svg6"
   sodipodi:docname="xfce4-weather.svg"
   inkscape:version="0.92.4 (5da689c313, 2019-01-14)">
  <metadata
     id="metadata12">
    <rdf:RDF>
      <cc:Work
         rdf:about="">
        <dc:format>image/svg+xml</dc:format>
        <dc:type
           rdf:resource="http://purl.org/dc/dcmitype/StillImage" />
        <dc:title></dc:title>
      </cc:Work>
    </rdf:RDF>
  </metadata>
  <defs
     id="defs10" />
  <sodipodi:namedview
     pagecolor="#ffffff"
     bordercolor="#666666"
     borderopacity="1"
     objecttolerance="10"
     gridtolerance="10"
     guidetolerance="10"
     inkscape:pageopacity="0"
     inkscape:pageshadow="2"
     inkscape:window-width="1087"
     inkscape:window-height="480"
     id="namedview8"
     showgrid="false"
     inkscape:zoom="4.9166667"
     inkscape:cx="2.1355932"
     inkscape:cy="24"
     inkscape:window-x="0"
     inkscape:window-y="25"
     inkscape:window-maximized="0"
     inkscape:current-layer="svg6" />
  <path
     d="M 6.34,0.07 A 6.29,6.29 0 0 0 0.05,6.37 6.29,6.29 0 0 0 6.35,12.65 6.29,6.29 0 0 0 12.63,6.36 6.29,6.29 0 0 0 6.34,0.07 Z M 6.33,1.01 a 5.4,5.4 0 0 1 5.4,5.4 5.4,5.4 0 0 1 -5.4,5.41 A 5.4,5.4 0 0 1 0.92,6.42 5.4,5.4 0 0 1 6.32,1 Z M 6.35,1.77 C 5.51,1.77 4.82,2.45 4.82,3.3 v 3.63 a 2.29,2.29 0 1 0 3.06,0 V 3.3 C 7.88,2.45 7.19,1.77 6.35,1.77 Z M 5.97,4.82 H 6.73 V 7.56 A 1.15,1.15 0 0 1 7.5,8.64 1.15,1.15 0 0 1 6.35,9.78 1.15,1.15 0 0 1 5.21,8.64 1.15,1.15 0 0 1 5.97,7.56 Z"
     id="path2"
     inkscape:connector-curvature="0"
     style="fill:#963996" />
  <path
     d="M 5.97,4.82 V 7.56 A 1.15,1.15 0 0 0 5.21,8.64 1.15,1.15 0 0 0 6.35,9.78 1.15,1.15 0 0 0 7.5,8.64 1.15,1.15 0 0 0 6.73,7.56 V 4.82 Z"
     id="path4"
     inkscape:connector-curvature="0"
     style="opacity:0.75;fill:#ff2a2a" />
</svg>
